packages/kaspersky-hexa-ui-icons/src/iconsSVGs/16/StatusInProgress.svg

<svg width="16" height="16" viewBox="0 0 16 16" fill="none" xmlns="http://www.w3.org/2000/svg">
<path d="M4.58579 5.58579L7 8L4.58579 10.4142C4.21071 10.7893 4 11.298 4 11.8284V14C4 14.5523 4.44772 15 5 15H11C11.5523 15 12 14.5523 12 14V11.8284C12 11.298 11.7893 10.7893 11.4142 10.4142L9 8L11.4142 5.58579C11.7893 5.21071 12 4.70201 12 4.17157V2C12 1.44772 11.5523 1 11 1H5C4.44772 1 4 1.44772 4 2V4.17157C4 4.70201 4.21071 5.21071 4.58579 5.58579Z" fill="black"/>
</svg>

<svg xmlns="http://www.w3.org/2000/svg" width="16" height="16" fill="none" viewBox="0 0 16 16"><path fill="#000" d="M4.5858 5.5858 7 8l-2.4142 2.4142A2 2 0 0 0 4 11.8284V14c0 .5523.4477 1 1 1h6c.5523 0 1-.4477 1-1v-2.1716a2 2 0 0 0-.5858-1.4142L9 8l2.4142-2.4142A2 2 0 0 0 12 4.1716V2c0-.5523-.4477-1-1-1H5c-.5523 0-1 .4477-1 1v2.1716a2 2 0 0 0 .5858 1.4142"/></svg>
